Obsidian/actions/22s/hide-reconciled.svg

<svg height="22" width="22" xmlns="http://www.w3.org/2000/svg"><path d="m5 3v1h5v13h-3v2h8v-2h-3v-13h5v-1zm0 1.0214844-2.9648438 6.9785156h-.0351562c0 .022027.005387.042539.0058594.064453l-.015625.039063.0214844.009765c.0608254 1.603207 1.3701892 2.886719 2.9882812 2.886719s2.9274558-1.283512 2.9882812-2.886719l.0214844-.009765-.015625-.039063c.0004724-.021914.0058594-.042426.0058594-.064453h-.0351562zm12 0-2.964844 6.9785156h-.035156c0 .022027.005387.042539.005859.064453l-.015625.039063.021485.009765c.060825 1.603207 1.370189 2.886719 2.988281 2.886719s2.927456-1.283512 2.988281-2.886719l.021485-.009765-.015625-.039063c.000472-.021914.005859-.042426.005859-.064453h-.035156zm-12 2.5585937 1.8789062 4.4199219h-3.7578124zm12 0 1.878906 4.4199219h-3.757812z" fill="#bebebe" opacity=".3"/></svg>

<svg xmlns="http://www.w3.org/2000/svg" width="22" height="22" version="1.1">
 <defs>
  <style id="current-color-scheme" type="text/css">
   .ColorScheme-Text { color:#bebebe; } .ColorScheme-Highlight { color:#4285f4; }
  </style>
 </defs>
 <path style="opacity:0.3;fill:currentColor" class="ColorScheme-Text" d="M 5 3 L 5 4 L 10 4 L 10 17 L 7 17 L 7 19 L 15 19 L 15 17 L 12 17 L 12 4 L 17 4 L 17 3 L 5 3 z M 5 4.0214844 L 2.0351562 11 L 2 11 C 2 11.022027 2.005387 11.042539 2.0058594 11.064453 L 1.9902344 11.103516 L 2.0117188 11.113281 C 2.0725442 12.716488 3.381908 14 5 14 C 6.618092 14 7.9274558 12.716488 7.9882812 11.113281 L 8.0097656 11.103516 L 7.9941406 11.064453 C 7.994613 11.042539 8 11.022027 8 11 L 7.9648438 11 L 5 4.0214844 z M 17 4.0214844 L 14.035156 11 L 14 11 C 14 11.022027 14.005387 11.042539 14.005859 11.064453 L 13.990234 11.103516 L 14.011719 11.113281 C 14.072544 12.716488 15.381908 14 17 14 C 18.618092 14 19.927456 12.716488 19.988281 11.113281 L 20.009766 11.103516 L 19.994141 11.064453 C 19.994613 11.042539 20 11.022027 20 11 L 19.964844 11 L 17 4.0214844 z M 5 6.5800781 L 6.8789062 11 L 3.1210938 11 L 5 6.5800781 z M 17 6.5800781 L 18.878906 11 L 15.121094 11 L 17 6.5800781 z"/>
</svg>
